flaticon/romance-lifestyle/drugs.svg

<svg xmlns="http://www.w3.org/2000/svg" width="32" height="32" viewBox="0 0 24 24">
    <path d="M 16.441406 1.507812 L 15.121094 0.1875 L 0 15.308594 L 1.335938 16.644531 C 1.046875 17.5 1.769531 18.796875 2.765625 19.789062 C 3.601562 20.671875 4.648438 21.296875 5.488281 21.296875 C 5.78125 21.296875 6.074219 21.214844 6.28125 21.003906 L 20.890625 6.476562 C 21.023438 6.410156 21.109375 6.324219 21.152344 6.261719 C 21.949219 5.464844 21.152344 3.875 19.980469 2.703125 C 18.816406 1.539062 17.242188 0.75 16.441406 1.507812 Z M 15.121094 1.359375 L 15.789062 2.03125 L 1.84375 15.980469 L 1.171875 15.308594 Z M 5.695312 20.417969 C 5.488281 20.628906 4.398438 20.335938 3.308594 19.246094 C 2.21875 18.113281 1.925781 17.066406 2.136719 16.859375 L 16.160156 2.832031 C 16.164062 2.84375 16.167969 2.851562 16.167969 2.863281 C 16.175781 2.96875 16.210938 3.046875 16.210938 3.164062 C 16.460938 3.789062 16.921875 4.460938 17.507812 5.046875 C 18.058594 5.5625 18.609375 5.976562 19.160156 6.242188 C 19.265625 6.296875 19.371094 6.34375 19.476562 6.386719 C 19.539062 6.414062 19.597656 6.4375 19.65625 6.460938 L 18.425781 7.691406 C 18.085938 7.785156 17.105469 7.449219 16.125 6.472656 C 15.832031 6.179688 15.582031 5.886719 15.371094 5.550781 L 15.078125 5.128906 L 3.8125 16.398438 L 3.980469 16.691406 C 4.1875 17.066406 4.480469 17.402344 4.816406 17.738281 C 5.515625 18.4375 6.320312 18.925781 7 19.117188 Z M 7.621094 18.410156 C 7.164062 18.410156 6.28125 18.03125 5.402344 17.152344 C 5.195312 16.941406 5.027344 16.734375 4.859375 16.523438 L 14.953125 6.511719 C 15.121094 6.722656 15.289062 6.933594 15.496094 7.140625 C 16.117188 7.761719 16.898438 8.296875 17.601562 8.511719 L 16.023438 10.089844 C 15.4375 9.734375 14.628906 9.671875 13.738281 9.949219 C 12.691406 10.242188 11.644531 10.910156 10.722656 11.832031 C 8.921875 13.632812 8.207031 15.855469 8.996094 17.117188 L 7.707031 18.410156 Z M 11.351562 12.375 C 12.148438 11.539062 13.109375 10.953125 13.988281 10.703125 C 14.28125 10.617188 14.574219 10.574219 14.828125 10.574219 C 15.035156 10.574219 15.246094 10.617188 15.414062 10.703125 L 9.632812 16.480469 C 9.257812 15.519531 9.925781 13.800781 11.351562 12.375 Z M 20.609375 5.714844 C 20.53125 5.6875 20.445312 5.675781 20.355469 5.675781 C 20.1875 5.675781 20.019531 5.632812 19.769531 5.550781 C 19.265625 5.339844 18.679688 4.921875 18.179688 4.417969 C 18.054688 4.304688 17.941406 4.1875 17.832031 4.066406 C 17.0625 3.113281 16.863281 2.296875 17.046875 2.113281 C 17.257812 1.90625 18.304688 2.199219 19.433594 3.328125 C 20.523438 4.460938 20.816406 5.507812 20.609375 5.714844 Z M 20.609375 5.714844"/>
    <path d="M17.925781 3.035156C17.757812 3.203125 17.757812 3.457031 17.925781 3.625L19.097656 4.796875C19.183594 4.878906 19.265625 4.921875 19.394531 4.921875 19.519531 4.921875 19.644531 4.878906 19.6875 4.796875 19.851562 4.628906 19.851562 4.375 19.6875 4.210938L18.511719 3.035156C18.34375 2.867188 18.09375 2.867188 17.925781 3.035156zM8.082031 22.972656C7.832031 22.972656 7.664062 23.140625 7.664062 23.394531 7.664062 23.644531 7.832031 23.8125 8.082031 23.8125 8.292969 23.8125 8.503906 23.644531 8.503906 23.394531 8.503906 23.183594 8.292969 22.972656 8.082031 22.972656zM11.433594 22.972656C11.183594 22.972656 11.015625 23.140625 11.015625 23.394531 11.015625 23.644531 11.183594 23.8125 11.433594 23.8125 11.644531 23.8125 11.851562 23.644531 11.851562 23.394531 11.851562 23.183594 11.644531 22.972656 11.433594 22.972656zM13.109375 22.972656C12.902344 22.972656 12.691406 23.140625 12.691406 23.394531 12.691406 23.644531 12.902344 23.8125 13.109375 23.8125 13.320312 23.8125 13.527344 23.644531 13.527344 23.394531 13.527344 23.183594 13.320312 22.972656 13.109375 22.972656zM9.757812 22.972656C9.507812 22.972656 9.339844 23.140625 9.339844 23.394531 9.339844 23.644531 9.507812 23.8125 9.757812 23.8125 9.96875 23.8125 10.179688 23.644531 10.179688 23.394531 10.179688 23.183594 9.96875 22.972656 9.757812 22.972656zM6.410156 22.972656C6.15625 22.972656 5.988281 23.140625 5.988281 23.394531 5.988281 23.644531 6.15625 23.8125 6.410156 23.8125 6.617188 23.8125 6.828125 23.644531 6.828125 23.394531 6.828125 23.183594 6.617188 22.972656 6.410156 22.972656zM4.734375 22.972656C4.480469 22.972656 4.3125 23.140625 4.3125 23.394531 4.3125 23.644531 4.480469 23.8125 4.734375 23.8125 4.941406 23.8125 5.152344 23.644531 5.152344 23.394531 5.152344 23.183594 4.941406 22.972656 4.734375 22.972656zM3.265625 22.765625C3.058594 22.679688 2.804688 22.765625 2.722656 22.972656 2.640625 23.183594 2.722656 23.433594 2.933594 23.519531 2.972656 23.558594 3.015625 23.558594 3.097656 23.558594 3.265625 23.558594 3.394531 23.476562 3.476562 23.308594 3.558594 23.097656 3.476562 22.847656 3.265625 22.765625zM1.800781 20.460938C1.800781 20.25 1.589844 20.042969 1.382812 20.042969 1.132812 20.042969.964844 20.25.964844 20.460938.964844 20.710938 1.132812 20.878906 1.382812 20.878906 1.589844 20.878906 1.800781 20.710938 1.800781 20.460938zM1.632812 21.675781C1.425781 21.800781 1.382812 22.09375 1.507812 22.261719 1.589844 22.386719 1.71875 22.472656 1.886719 22.472656 1.925781 22.472656 2.011719 22.429688 2.09375 22.386719 2.304688 22.261719 2.34375 22.011719 2.21875 21.800781 2.09375 21.589844 1.84375 21.550781 1.632812 21.675781zM18.136719 22.972656C17.882812 22.972656 17.71875 23.140625 17.71875 23.394531 17.71875 23.644531 17.882812 23.8125 18.136719 23.8125 18.34375 23.8125 18.554688 23.644531 18.554688 23.394531 18.554688 23.183594 18.34375 22.972656 18.136719 22.972656zM19.8125 22.972656C19.558594 22.972656 19.394531 23.140625 19.394531 23.394531 19.394531 23.644531 19.558594 23.8125 19.8125 23.8125 20.019531 23.8125 20.230469 23.644531 20.230469 23.394531 20.230469 23.183594 20.019531 22.972656 19.8125 22.972656zM16.460938 22.972656C16.210938 22.972656 16.042969 23.140625 16.042969 23.394531 16.042969 23.644531 16.210938 23.8125 16.460938 23.8125 16.671875 23.8125 16.878906 23.644531 16.878906 23.394531 16.878906 23.183594 16.671875 22.972656 16.460938 22.972656zM14.785156 22.972656C14.574219 22.972656 14.367188 23.140625 14.367188 23.394531 14.367188 23.644531 14.574219 23.8125 14.785156 23.8125 14.996094 23.8125 15.203125 23.644531 15.203125 23.394531 15.203125 23.183594 14.996094 22.972656 14.785156 22.972656zM16.878906 21.675781C16.628906 21.675781 16.460938 21.84375 16.460938 22.09375 16.460938 22.34375 16.628906 22.511719 16.878906 22.511719 17.132812 22.511719 17.296875 22.34375 17.296875 22.09375 17.296875 21.84375 17.132812 21.675781 16.878906 21.675781zM18.554688 21.675781C18.304688 21.675781 18.136719 21.84375 18.136719 22.09375 18.136719 22.34375 18.304688 22.511719 18.554688 22.511719 18.804688 22.511719 18.972656 22.34375 18.972656 22.09375 18.972656 21.84375 18.804688 21.675781 18.554688 21.675781zM22.324219 22.933594C22.074219 22.933594 21.90625 23.097656 21.90625 23.351562 21.90625 23.601562 22.074219 23.769531 22.324219 23.769531 22.574219 23.769531 22.742188 23.601562 22.742188 23.351562 22.742188 23.097656 22.574219 22.933594 22.324219 22.933594zM23.582031 22.933594C23.328125 22.933594 23.164062 23.097656 23.164062 23.351562 23.164062 23.601562 23.328125 23.769531 23.582031 23.769531 23.832031 23.769531 24 23.601562 24 23.351562 24 23.097656 23.832031 22.933594 23.582031 22.933594zM15.203125 21.675781C14.953125 21.675781 14.785156 21.84375 14.785156 22.09375 14.785156 22.34375 14.953125 22.511719 15.203125 22.511719 15.457031 22.511719 15.621094 22.34375 15.621094 22.09375 15.621094 21.84375 15.457031 21.675781 15.203125 21.675781zM13.949219 21.675781C13.695312 21.675781 13.527344 21.84375 13.527344 22.09375 13.527344 22.34375 13.695312 22.511719 13.949219 22.511719 14.199219 22.511719 14.367188 22.34375 14.367188 22.09375 14.367188 21.84375 14.199219 21.675781 13.949219 21.675781zM13.109375 22.09375C13.109375 21.84375 12.941406 21.675781 12.691406 21.675781 12.441406 21.675781 12.273438 21.84375 12.273438 22.09375 12.273438 22.34375 12.441406 22.511719 12.691406 22.511719 12.941406 22.511719 13.109375 22.34375 13.109375 22.09375zM11.433594 22.09375C11.433594 21.84375 11.265625 21.675781 11.015625 21.675781 10.765625 21.675781 10.597656 21.84375 10.597656 22.09375 10.597656 22.34375 10.765625 22.511719 11.015625 22.511719 11.265625 22.511719 11.433594 22.34375 11.433594 22.09375zM9.757812 22.09375C9.757812 21.84375 9.589844 21.675781 9.339844 21.675781 9.089844 21.675781 8.921875 21.84375 8.921875 22.09375 8.921875 22.34375 9.089844 22.511719 9.339844 22.511719 9.589844 22.511719 9.757812 22.34375 9.757812 22.09375zM8.082031 21.675781C7.832031 21.675781 7.664062 21.84375 7.664062 22.09375 7.664062 22.34375 7.832031 22.511719 8.082031 22.511719 8.335938 22.511719 8.503906 22.34375 8.503906 22.09375 8.503906 21.84375 8.335938 21.675781 8.082031 21.675781zM6.828125 21.675781C6.574219 21.675781 6.410156 21.84375 6.410156 22.09375 6.410156 22.34375 6.574219 22.511719 6.828125 22.511719 7.078125 22.511719 7.246094 22.34375 7.246094 22.09375 7.246094 21.84375 7.078125 21.675781 6.828125 21.675781zM5.570312 21.675781C5.320312 21.675781 5.152344 21.84375 5.152344 22.09375 5.152344 22.34375 5.320312 22.511719 5.570312 22.511719 5.820312 22.511719 5.988281 22.34375 5.988281 22.09375 5.988281 21.84375 5.820312 21.675781 5.570312 21.675781zM4.734375 22.09375C4.734375 21.84375 4.566406 21.675781 4.3125 21.675781 4.0625 21.675781 3.894531 21.84375 3.894531 22.09375 3.894531 22.34375 4.0625 22.511719 4.3125 22.511719 4.566406 22.511719 4.734375 22.34375 4.734375 22.09375zM3.058594 21.675781C3.308594 21.675781 3.476562 21.507812 3.476562 21.257812 3.476562 21.003906 3.308594 20.835938 3.058594 20.835938 2.804688 20.835938 2.640625 21.003906 2.640625 21.257812 2.640625 21.507812 2.804688 21.675781 3.058594 21.675781zM3.058594 21.675781"/>
</svg>

<svg xmlns="http://www.w3.org/2000/svg" width="32" height="32" viewBox="0 0 24 24">
    <path d="M16.441 1.508l-1.32-1.32L0 15.307l1.336 1.337c-.29.855.434 2.152 1.43 3.144.836.883 1.882 1.508 2.722 1.508.293 0 .586-.082.793-.293l14.61-14.527a.7.7 0 0 0 .261-.215c.797-.797 0-2.387-1.172-3.559C18.816 1.54 17.242.75 16.441 1.508zm-1.32-.149l.668.672-13.945 13.95-.672-.672zM5.695 20.418c-.207.21-1.297-.082-2.386-1.172-1.09-1.133-1.383-2.18-1.172-2.387L16.16 2.832c.004.012.008.02.008.031.008.106.043.184.043.301.25.625.71 1.297 1.297 1.883.55.516 1.101.93 1.652 1.195.106.055.211.102.317.145.062.027.12.05.18.074l-1.231 1.23c-.34.094-1.32-.242-2.301-1.218a5.228 5.228 0 0 1-.754-.922l-.293-.422-11.265 11.27.167.292c.208.375.5.711.836 1.047.7.7 1.504 1.188 2.184 1.38zm1.926-2.008c-.457 0-1.34-.379-2.219-1.258a7.784 7.784 0 0 1-.543-.629L14.953 6.512c.168.21.336.422.543.629.621.62 1.402 1.156 2.106 1.37l-1.579 1.579c-.585-.356-1.394-.418-2.285-.14-1.047.292-2.093.96-3.015 1.882-1.801 1.8-2.516 4.023-1.727 5.285L7.707 18.41zm3.73-6.035c.797-.836 1.758-1.422 2.637-1.672.293-.086.586-.129.84-.129.207 0 .418.043.586.13L9.633 16.48c-.375-.96.293-2.68 1.719-4.105zm9.258-6.66a.769.769 0 0 0-.254-.04c-.168 0-.335-.042-.585-.124-.504-.211-1.09-.63-1.59-1.133a4.91 4.91 0 0 1-.348-.352c-.77-.953-.969-1.77-.785-1.953.21-.207 1.258.086 2.387 1.215 1.09 1.133 1.382 2.18 1.175 2.387zm0 0"/>
    <path d="M17.926 3.035a.408.408 0 0 0 0 .59l1.172 1.172a.392.392 0 0 0 .297.125c.125 0 .25-.043.293-.125a.41.41 0 0 0 0-.586l-1.176-1.176a.404.404 0 0 0-.586 0zm0 0M8.082 22.973c-.25 0-.418.168-.418.422 0 .25.168.418.418.418.211 0 .422-.168.422-.418 0-.211-.211-.422-.422-.422zm0 0M11.434 22.973c-.25 0-.418.168-.418.422 0 .25.168.418.418.418.21 0 .418-.168.418-.418 0-.211-.207-.422-.418-.422zm0 0M13.11 22.973a.42.42 0 0 0 0 .84c.21 0 .417-.168.417-.418 0-.211-.207-.422-.418-.422zm0 0M9.758 22.973c-.25 0-.418.168-.418.422 0 .25.168.418.418.418.21 0 .422-.168.422-.418 0-.211-.211-.422-.422-.422zm0 0M6.41 22.973c-.254 0-.422.168-.422.422 0 .25.168.418.422.418a.42.42 0 0 0 .418-.418c0-.211-.21-.422-.418-.422zm0 0M4.734 22.973c-.254 0-.421.168-.421.422 0 .25.167.418.421.418a.42.42 0 0 0 .418-.418c0-.211-.21-.422-.418-.422zm0 0M3.266 22.766c-.207-.086-.461 0-.543.207-.082.21 0 .46.21.547.04.039.083.039.165.039.168 0 .297-.082.379-.25.082-.211 0-.461-.211-.543zm0 0M1.8 20.46c0-.21-.21-.417-.417-.417a.418.418 0 0 0-.418.418c0 .25.168.418.418.418a.42.42 0 0 0 .418-.418zm0 0M1.633 21.676a.42.42 0 0 0-.125.586c.082.125.21.21.379.21a.7.7 0 0 0 .207-.085c.21-.125.25-.375.125-.586-.125-.211-.375-.25-.586-.125zm0 0M18.137 22.973c-.254 0-.418.168-.418.422 0 .25.164.418.418.418a.42.42 0 0 0 .418-.418c0-.211-.211-.422-.418-.422zm0 0M19.813 22.973c-.254 0-.418.168-.418.422 0 .25.164.418.418.418a.42.42 0 0 0 .417-.418c0-.211-.21-.422-.418-.422zm0 0M16.46 22.973c-.25 0-.417.168-.417.422 0 .25.168.418.418.418.21 0 .418-.168.418-.418 0-.211-.207-.422-.418-.422zm0 0M14.785 22.973a.419.419 0 1 0 .418.422c0-.211-.207-.422-.418-.422zm0 0M16.879 21.676c-.25 0-.418.168-.418.418 0 .25.168.418.418.418.254 0 .418-.168.418-.418 0-.25-.164-.418-.418-.418zm0 0M18.555 21.676c-.25 0-.418.168-.418.418 0 .25.168.418.418.418.25 0 .418-.168.418-.418 0-.25-.168-.418-.418-.418zm0 0M22.324 22.934c-.25 0-.418.164-.418.418 0 .25.168.418.418.418.25 0 .418-.168.418-.418 0-.254-.168-.418-.418-.418zm0 0M23.582 22.934c-.254 0-.418.164-.418.418 0 .25.164.418.418.418.25 0 .418-.168.418-.418 0-.254-.168-.418-.418-.418zm0 0M15.203 21.676c-.25 0-.418.168-.418.418 0 .25.168.418.418.418.254 0 .418-.168.418-.418 0-.25-.164-.418-.418-.418zm0 0M13.95 21.676c-.255 0-.423.168-.423.418 0 .25.168.418.422.418.25 0 .418-.168.418-.418 0-.25-.168-.418-.418-.418zm0 0M13.11 22.094c0-.25-.169-.418-.419-.418-.25 0-.418.168-.418.418 0 .25.168.418.418.418.25 0 .418-.168.418-.418zm0 0M11.434 22.094c0-.25-.168-.418-.418-.418-.25 0-.418.168-.418.418 0 .25.168.418.418.418.25 0 .418-.168.418-.418zm0 0M9.758 22.094c0-.25-.168-.418-.418-.418-.25 0-.418.168-.418.418 0 .25.168.418.418.418.25 0 .418-.168.418-.418zm0 0M8.082 21.676c-.25 0-.418.168-.418.418 0 .25.168.418.418.418.254 0 .422-.168.422-.418 0-.25-.168-.418-.422-.418zm0 0M6.828 21.676c-.254 0-.418.168-.418.418 0 .25.164.418.418.418.25 0 .418-.168.418-.418 0-.25-.168-.418-.418-.418zm0 0M5.57 21.676c-.25 0-.418.168-.418.418 0 .25.168.418.418.418.25 0 .418-.168.418-.418 0-.25-.168-.418-.418-.418zm0 0M4.734 22.094c0-.25-.168-.418-.421-.418-.25 0-.418.168-.418.418 0 .25.167.418.417.418.254 0 .422-.168.422-.418zm0 0M3.059 21.676c.25 0 .418-.168.418-.418 0-.254-.168-.422-.418-.422-.254 0-.418.168-.418.422 0 .25.164.418.418.418zm0 0"/>
</svg>
